X: 1
T: Mystic Hornpipe v.1
P: piffero primo a0870
O: Frank Grady
%R: hornpipe, reel
F: http://ancients.sudburymuster.org/mus/sng/pdf/mystic1C0.pdf
Z: 2020 John Chambers <jc:trillian.mit.edu>
N: The SAFD collection has two "versions", but they differ only in the drum part.
M: 2/4
L: 1/16
K: D
fe |\
dcdA FAdc | BGBG E2ed | cdcB ABAG | FAdA f2fe | dcdA FAdc |
BGBG E2ed | cdcB ABcd | edce d2 :: fg | aAfA fgfe | dcdB G2ef |
gAfA edcd | edcd f2fg | aAfA fgfe | dcdB G2ed | cdcB ABcd | edce d2 :|


